X: 342
M: 2/2
L: 1/8
K: D
!segno!A3G |\
[| "2.F."A2A2 |\
d3c B2A2 | G2E2 e3d |\
c2Bc d2c2 | B2AG A2B2 |\
c3d !+!B3A | A4 !segno!y|]

